src/icons/nocookie.svg

<svg width="22" height="23" viewBox="0 0 22 23" version="1.1" xmlns="http://www.w3.org/2000/svg" xmlns:xlink="http://www.w3.org/1999/xlink">
<title>nocookie</title>
<desc>Created using Figma</desc>
<g id="Canvas" transform="translate(-2887 46)">
<g id="nocookie">
<g id="Subtract">
<use xlink:href="#path0_fill" transform="translate(2887 -44.9952)" fill="#F2994A"/>
</g>
<g id="ic_close_black_24px (3)">
<g id="Ellipse 3">
<use xlink:href="#path1_fill" transform="translate(2890 -38)" fill="#FFFFFF"/>
</g>
<g id="Ellipse 3">
<use xlink:href="#path1_fill" transform="translate(2893 -31)" fill="#FFFFFF"/>
</g>
<g id="Ellipse 3">
<use xlink:href="#path1_fill" transform="translate(2898 -35)" fill="#FFFFFF"/>
</g>
<g id="Ellipse 3">
<use xlink:href="#path1_fill" transform="translate(2902 -30)" fill="#FFFFFF"/>
</g>
<g id="Vector">
<use xlink:href="#path2_fill" transform="translate(2901 -45)" fill="#F2994A"/>
<mask id="mask0_outline_out">
<rect id="mask0_outline_inv" fill="white" x="-1" y="-1" width="8" height="8" transform="translate(2901 -45)"/>
<use xlink:href="#path2_fill" fill="black" transform="translate(2901 -45)"/>
</mask>
<g mask="url(#mask0_outline_out)">
<use xlink:href="#path3_stroke_2x" transform="translate(2901 -45)" fill="#F2994A"/>
</g>
</g>
</g>
</g>
</g>
<defs>
<path id="path0_fill" fill-rule="evenodd" d="M 21.6492 8.2284C 20.4128 9.32753 18.7844 9.99518 17 9.99518C 13.134 9.99518 10 6.86117 10 2.99518C 10 1.92348 10.241 0.90803 10.6714 0C 4.74829 0.173797 0 5.02998 0 10.9952C 0 17.0703 4.9248 21.9952 11 21.9952C 17.0752 21.9952 22 17.0703 22 10.9952C 22 10.0396 21.8782 9.11241 21.6492 8.2284Z"/>
<path id="path1_fill" d="M 4 2C 4 3.10457 3.10457 4 2 4C 0.895431 4 0 3.10457 0 2C 0 0.895431 0.895431 0 2 0C 3.10457 0 4 0.895431 4 2Z"/>
<path id="path2_fill" d="M 6 0.604286L 5.39571 0L 3 2.39571L 0.604286 0L 0 0.604286L 2.39571 3L 0 5.39571L 0.604286 6L 3 3.60429L 5.39571 6L 6 5.39571L 3.60429 3L 6 0.604286Z"/>
<path id="path3_stroke_2x" d="M 6 0.604286L 6.35355 0.957839L 6.70711 0.604286L 6.35355 0.250732L 6 0.604286ZM 5.39571 0L 5.74927 -0.353553L 5.39571 -0.707107L 5.04216 -0.353553L 5.39571 0ZM 3 2.39571L 2.64645 2.74927L 3 3.10282L 3.35355 2.74927L 3 2.39571ZM 0.604286 0L 0.957839 -0.353553L 0.604286 -0.707107L 0.250732 -0.353553L 0.604286 0ZM 0 0.604286L -0.353553 0.250732L -0.707107 0.604286L -0.353553 0.957839L 0 0.604286ZM 2.39571 3L 2.74927 3.35355L 3.10282 3L 2.74927 2.64645L 2.39571 3ZM 0 5.39571L -0.353553 5.04216L -0.707107 5.39571L -0.353553 5.74927L 0 5.39571ZM 0.604286 6L 0.250732 6.35355L 0.604286 6.70711L 0.957839 6.35355L 0.604286 6ZM 3 3.60429L 3.35355 3.25073L 3 2.89718L 2.64645 3.25073L 3 3.60429ZM 5.39571 6L 5.04216 6.35355L 5.39571 6.70711L 5.74927 6.35355L 5.39571 6ZM 6 5.39571L 6.35355 5.74927L 6.70711 5.39571L 6.35355 5.04216L 6 5.39571ZM 3.60429 3L 3.25073 2.64645L 2.89718 3L 3.25073 3.35355L 3.60429 3ZM 6.35355 0.250732L 5.74927 -0.353553L 5.04216 0.353553L 5.64645 0.957839L 6.35355 0.250732ZM 5.04216 -0.353553L 2.64645 2.04216L 3.35355 2.74927L 5.74927 0.353553L 5.04216 -0.353553ZM 3.35355 2.04216L 0.957839 -0.353553L 0.250732 0.353553L 2.64645 2.74927L 3.35355 2.04216ZM 0.250732 -0.353553L -0.353553 0.250732L 0.353553 0.957839L 0.957839 0.353553L 0.250732 -0.353553ZM -0.353553 0.957839L 2.04216 3.35355L 2.74927 2.64645L 0.353553 0.250732L -0.353553 0.957839ZM 2.04216 2.64645L -0.353553 5.04216L 0.353553 5.74927L 2.74927 3.35355L 2.04216 2.64645ZM -0.353553 5.74927L 0.250732 6.35355L 0.957839 5.64645L 0.353553 5.04216L -0.353553 5.74927ZM 0.957839 6.35355L 3.35355 3.95784L 2.64645 3.25073L 0.250732 5.64645L 0.957839 6.35355ZM 2.64645 3.95784L 5.04216 6.35355L 5.74927 5.64645L 3.35355 3.25073L 2.64645 3.95784ZM 5.74927 6.35355L 6.35355 5.74927L 5.64645 5.04216L 5.04216 5.64645L 5.74927 6.35355ZM 6.35355 5.04216L 3.95784 2.64645L 3.25073 3.35355L 5.64645 5.74927L 6.35355 5.04216ZM 3.95784 3.35355L 6.35355 0.957839L 5.64645 0.250732L 3.25073 2.64645L 3.95784 3.35355Z"/>
</defs>
</svg>

<svg width="22" height="23" xmlns="http://www.w3.org/2000/svg" xmlns:xlink="http://www.w3.org/1999/xlink"><use xlink:href="#path0_fill" transform="translate(0 1.005)" fill="#F2994A"/><use xlink:href="#path1_fill" transform="translate(3 8)" fill="#FFF"/><use xlink:href="#path1_fill" transform="translate(6 15)" fill="#FFF"/><use xlink:href="#path1_fill" transform="translate(11 11)" fill="#FFF"/><use xlink:href="#path1_fill" transform="translate(15 16)" fill="#FFF"/><g transform="translate(-2887 46)"><use xlink:href="#path2_fill" transform="translate(2901 -45)" fill="#F2994A"/><mask id="a"><path fill="#fff" transform="translate(2901 -45)" d="M-1-1h8v8h-8z"/><use xlink:href="#path2_fill" transform="translate(2901 -45)"/></mask><g mask="url(#a)"><use xlink:href="#path3_stroke_2x" transform="translate(2901 -45)" fill="#F2994A"/></g></g><defs><path id="path0_fill" fill-rule="evenodd" d="M21.65 8.228A7 7 0 0 1 10.671 0C4.747.174 0 5.03 0 10.995c0 6.075 4.925 11 11 11s11-4.925 11-11c0-.955-.122-1.883-.35-2.767z"/><path id="path1_fill" d="M4 2a2 2 0 1 1-4 0 2 2 0 0 1 4 0z"/><path id="path2_fill" d="M6 .604L5.396 0 3 2.396.604 0 0 .604 2.396 3 0 5.396.604 6 3 3.604 5.396 6 6 5.396 3.604 3 6 .604z"/><path id="path3_stroke_2x" d="M6 .604l.354.354.353-.354-.353-.353L6 .604zM5.396 0l.353-.354-.353-.353-.354.353.354.354zM3 2.396l-.354.353.354.354.354-.354L3 2.396zM.604 0l.354-.354-.354-.353-.353.353L.604 0zM0 .604L-.354.251l-.353.353.353.354L0 .604zM2.396 3l.353.354L3.103 3l-.354-.354L2.396 3zM0 5.396l-.354-.354-.353.354.353.353L0 5.396zM.604 6l-.353.354.353.353.354-.353L.604 6zM3 3.604l.354-.353L3 2.897l-.354.354.354.353zM5.396 6l-.354.354.354.353.353-.353L5.396 6zM6 5.396l.354.353.353-.353-.353-.354L6 5.396zM3.604 3l-.353-.354L2.897 3l.354.354L3.604 3zM6.354.25l-.605-.604-.707.708.604.604.708-.707zM5.042-.353L2.646 2.042l.708.707L5.749.354l-.707-.708zM3.354 2.042L.958-.354.25.354l2.395 2.395.708-.707zM.25-.354l-.605.605.708.707.604-.604L.25-.354zM-.354.958l2.396 2.396.707-.708L.354.251l-.708.707zm2.396 1.688L-.354 5.042l.708.707 2.395-2.395-.707-.708zM-.354 5.75l.605.605.707-.708-.604-.604-.708.707zm1.312.605l2.396-2.396-.708-.707L.251 5.646l.707.708zm1.688-2.396l2.396 2.396.707-.708-2.395-2.395-.708.707zM5.75 6.354l.605-.605-.708-.707-.604.604.707.708zm.605-1.312L3.958 2.646l-.707.708 2.395 2.395.708-.707zM3.958 3.354L6.354.958 5.646.25 3.251 2.646l.707.708z"/></defs></svg>
